icons/typo3.svg

<?xml version="1.0" encoding="UTF-8"?>
<svg width="512px" height="137px" viewBox="0 0 512 137" version="1.1" xmlns="http://www.w3.org/2000/svg" xmlns:xlink="http://www.w3.org/1999/xlink" preserveAspectRatio="xMidYMid">
    <g>
        <path d="M57.4462792,2.09143195 C55.0221195,4.1828639 53.2634153,6.6545562 53.2634153,14.0221006 C53.2634153,34.0333017 78.5031963,94.1619702 95.7099773,94.1619702 C97.6412856,94.1838975 99.5646603,93.9114194 101.413883,93.3539169 L101.32,93.38 L100.913342,94.03171 C86.083652,117.662509 68.2072635,135.0657 57.3947955,135.414868 L57.0660189,135.420219 C33.2997467,135.420219 0.026965742,64.5491951 0.026965742,33.272781 C-0.178948137,29.3524726 0.798119079,25.4607642 2.83138585,22.1026331 C11.1020486,12.2633964 36.1516994,4.75325443 57.4462792,2.09143195 Z M90.1962022,0 C111.966107,0 133.736013,3.51740828 133.736013,15.7808047 C133.736013,40.6878579 117.955208,70.918556 109.969741,70.918556 C95.7099773,70.918556 77.6951431,30.8961538 77.6951431,10.8849526 C77.6951431,1.86999985 81.127284,0.0439909314 89.9615967,0.0007948413 L90.1962022,0 Z" fill="#F49700"></path>
        <path d="M416.982444,31.9418697 C441.176509,31.9418697 447.640935,48.6733253 447.640935,83.1344199 C447.640935,119.069023 441.176509,136.656065 416.982444,136.656065 C392.788379,136.656065 386.323953,119.069023 386.323953,83.1344199 C386.323953,48.6733253 392.788379,31.9418697 416.982444,31.9418697 Z M486.475024,31.9418697 C501.54284,31.9418697 510.241296,38.4062958 510.241296,60.4613963 C510.241296,70.3956981 507.199213,79.474414 499.118681,81.7084436 C508.625189,83.0393548 512,92.403266 512,106.805627 C511.80987,128.33787 503.349077,136.656065 487.045414,136.656065 C480.650214,136.36029 474.290655,135.533547 468.032397,134.184372 L468.032397,123.156822 C474.287802,124.506879 480.650161,125.302174 487.045414,125.533449 C494.508024,125.533449 499.356343,119.354219 499.356343,108.041473 C499.356343,94.4471655 497.169846,87.6975442 486.760219,87.6975442 L474.734485,87.6975442 L474.734485,76.9551892 L485.28671,76.9551892 C497.169846,76.9551892 497.740237,64.7868578 497.740237,58.9403549 C497.740237,47.3424141 494.080231,42.6366922 486.760219,42.6366922 C480.670978,42.8775356 474.620607,43.7214031 468.697852,45.155917 L468.697852,34.4610946 C474.521845,33.0156933 480.478747,32.1715334 486.475024,31.9418697 Z M229.323959,32.9875857 L229.323959,44.1102011 L206.698468,44.1102011 L206.698468,135.657881 L193.959746,135.657881 L193.959746,44.1102011 L171.381788,44.1102011 L171.381788,32.9875857 L229.323959,32.9875857 Z M340.740243,31.9418697 C363.033006,31.9418697 369.25977,45.7263076 369.25977,63.7886744 C369.4499,86.0814377 361.844693,96.9188578 341.025438,96.9188578 L328.714509,96.9188578 L328.714509,135.657881 L315.928255,135.657881 L315.928255,32.9875857 C315.928255,32.9875857 327.17595,32.0573252 338.663899,31.9516138 L339.494617,31.9454328 C339.910032,31.9430851 340.325414,31.9418697 340.740243,31.9418697 Z M248.76477,32.9875857 L268.158048,75.7668756 L287.503793,32.9875857 L300.575243,32.9875857 L273.861953,87.9827394 L273.861953,135.515284 L260.647906,135.515284 L260.647906,87.9827394 L234.505007,32.9875857 L248.76477,32.9875857 Z M416.982444,42.6366922 C403.768397,42.6366922 399.34787,51.6203431 399.34787,83.8474081 C399.34787,116.074473 403.768397,125.961242 416.982444,125.961242 C430.196491,125.961242 434.569485,115.409017 434.569485,83.8474081 C434.569485,52.2857987 430.148959,42.7792898 416.982444,42.7792898 L416.982444,42.6366922 Z M342.498947,42.4940946 C337.88856,42.4688088 333.282186,42.7706057 328.714509,43.3972129 L328.714509,86.1765027 L342.498947,86.1765027 C350.722077,86.1765027 356.425983,80.7577927 356.425983,64.7393253 C356.425983,50.1468342 352.908574,42.4940946 342.498947,42.4940946 Z" fill="#000000"></path>
    </g>
</svg>

<svg xmlns="http://www.w3.org/2000/svg" viewBox="0 0 512 136.656">
  <path fill="#f49700" d="M57.446 2.091c-2.424 2.092-4.183 4.564-4.183 11.931 0 20.011 25.24 80.14 42.447 80.14 1.931.022 3.855-.25 5.704-.808l-.094.026-.407.652c-14.83 23.63-32.706 41.034-43.518 41.383l-.329.005C33.3 135.42.027 64.55.027 33.273a19.583 19.583 0 0 1 2.804-11.17c8.271-9.84 33.32-17.35 54.615-20.012zM90.196 0c21.77 0 43.54 3.517 43.54 15.78 0 24.908-15.78 55.139-23.766 55.139-14.26 0-32.275-40.023-32.275-60.034C77.695 1.87 81.127.044 89.962.001z"/>
  <path d="M416.982 31.942c24.195 0 30.659 16.731 30.659 51.192 0 35.935-6.464 53.522-30.659 53.522-24.194 0-30.658-17.587-30.658-53.522 0-34.46 6.464-51.192 30.658-51.192zm69.493 0c15.068 0 23.766 6.464 23.766 28.52 0 9.934-3.042 19.012-11.122 21.246C508.625 83.04 512 92.403 512 106.806c-.19 21.532-8.65 29.85-24.955 29.85a115.55 115.55 0 0 1-19.013-2.472v-11.027a108.755 108.755 0 0 0 19.013 2.376c7.463 0 12.311-6.179 12.311-17.492 0-13.594-2.186-20.343-12.596-20.343h-12.026V76.955h10.553c11.883 0 12.453-12.168 12.453-18.015 0-11.598-3.66-16.303-10.98-16.303a92.213 92.213 0 0 0-18.062 2.519V34.46a87.745 87.745 0 0 1 17.777-2.52zm-257.151 1.046V44.11h-22.626v91.548H193.96V44.11h-22.578V32.988zm111.416-1.046c22.293 0 28.52 13.784 28.52 31.847.19 22.292-7.415 33.13-28.235 33.13h-12.31v38.739h-12.787V32.988s11.248-.93 22.736-1.036l.83-.007 1.246-.003zm-91.975 1.046 19.393 42.779 19.346-42.78h13.071l-26.713 54.996v47.532h-13.214V87.983l-26.143-54.995zm168.217 9.649c-13.214 0-17.634 8.983-17.634 41.21 0 32.227 4.42 42.114 17.634 42.114s17.587-10.552 17.587-42.114c0-31.561-4.42-41.068-17.587-41.068zm-74.483-.143a97.489 97.489 0 0 0-13.784.903v42.78h13.784c8.223 0 13.927-5.42 13.927-21.438 0-14.592-3.517-22.245-13.927-22.245z"/>
</svg>
